X: 113
T: REEL: Blackhaired Lass
C: C: Trad.; S: ThZCh; Mary Bergin
C: Set Leaders: Oliushka, Anton
Z: Anton Zille ed.; Bregolas at The Session
N: https://thesession.org/members/26966/sets/76523
R: Reel
M: 4/4
L: 1/8
Q: 1/2=100
K: Amix
d|cAAB cdec|d2 gd BGGd|cA~A2 cdec|dfec AddB|
cA~A2 Acec|dBgd BGGd|cA~A2 B/c/d ec|dfec A3 A||
B/c/d ef g2 eg|~f2 df gfed|B/c/d ef geag|fdec A2~A2|
B/c/d ef g2 e/f/g|fedc defg|afge fdec|dfec A3||

